!! 00000] TT[WS
!!!OTL: Yaodong baowei chan
!!!ARE: Asia, China, Shanxi Zuoquan
!! Ethnic Group: Han
!! WII, 226
!!!SCT: J0736
!!!YEM: Copyright 1995, estate of Helmut Schaffrath.
**kern
*ICvox
*Ivox
*M2/4
*k[f#]
*G:
{4dd
8dd
8ee
=1
4dd
4a
=2
4dd
8b
8ee
=3
2dd}
=4
{4.dd
8a
=5
4dd
8b
8a
=6
8b
4g
8a
=7
2g}
=8
{8a
8b
4dd
=9
8ee
8dd
8b
8a
=10
4.dd
8g
=11
8a
8b
8a
8g}
=12
{4.a
8g
=13
4d
8f#
8e
=14
4.d
8e
=15
2d}
==
!!!AGN: Xiaodiao. XÅshi, Xinminge
!!!ONB: ESAC (Essen Associative Code) Database: CHINA
!!!AMT: simple duple
!!!AIN: vox
!!!EED: Helmut Schaffrath
!!!EEV: 1.0
*-
